X:1
T:Revertere ad Dominum
T:(Colyn) Sampson I
T:Source : Bicina---Tomus I---Wittemberg---G.Rhau---1545. Editor : André Vierendeels (12/06/17).
T:Notes : Original clefs : G2 Editorial accidentals above the staff Dotted bracket indicate black notes Original note values have been halved      
T:Revertere ad Dominum
T:©
T:©
C:(Colyn) Sampson I
Z:©
%%score [ 1 2 ]
L:1/8
Q:1/4=120
M:2/2
K:F
V:1 treble nm="Soprano" snm="S"
V:2 treble-8 nm="Tenor" snm="T"
V:1
 z8 | F4 c4 | d4 c4 | z2 f4 e2 | d3 c/B/ c2 BA | G2 c4 B2 | c4 z2 G2 | A2 B2 c2 F2 | c3 B A2 G2- | %9
w: |Re- ver-|te- re|ad Do-|* * * mi- num _|O, pec- ca-|tor, et|re- lin- que pec-|ca- * * ta|
 G2 F4 E2 | F4 z2 c2 | d2 e2 f2 g2 | c2 g3 f e2 | d2 g2 fedc | d2 c4 B2 | c8 | z2 c4 c2 | %17
w: _ tu- *|a, pre-|ca- re an- te|fa- ci- * *|em Do- * * * *|* * mi-|ni,|et mi-|
 B2 c2 F2 c2- | c2 BA B2 c2 | A2 G2 z2 G2 | A2 B2 c2 A2 | G2 c4 B2 | c2 A2 G2 c2- | c2 B2 A2 G2- | %24
w: nu- e co- fen-|* * * * di-|cu- la,- re-|ver- te- re ad|Do- mi- *|* num eet sal-|* vus e- *|
 GF F4 E2 | F8 |] %26
w: |ris.|
V:2
 F4 c4 | d4 c4 | z2 f4 e2 | d4 c4 | z2 f4 d2 | e2 f2 d4 |"^-natural" c8 | z2 G2 A2 B2 | %8
w: Re- ver-|te- re|ad Do-|mi- num|O, pec-|ca- * *|tor,|et re- lin-|
 c2 F2 c3 B | A2 B2 G4 | F8 | z2 c2 d2 e2 | f2 g2 c2 g2- | gf e2 d2 g2 | fedc d4 | %15
w: que pec- ca- *|* ta tu-|a,|pre- ca- re|an- te fa- ci-|* * * em Do-|* * * * mi-|
"^-natural" c4 z2 f2- | f2 f2 e2 f2 | B2 f4 ed | e2 f2 d2 c2 | z2 c2 d2 e2 | f2 d2 c2 f2- | %21
w: ni, et|_ mi- nu- e|of- fen- * *|di o- cu- la,|re- ver- te-|re ad Do- mi-|
 fe e2 f2 d2 | c2 f2 e2 c2 | d3 c c3 B | A2 GF G4 | F8 |] %26
w: * num et sal- vus|e- * * *|||ris.|

